X:1
T:Aachen, 85.85 D
T:Aachen, 85.85 D
T:Ira David Sankey, 1901
T:Public Domain Courtesy of the Cyber Hymnal™
C:Ira David Sankey, 1901
Z:Public Domain
Z:Courtesy of the Cyber Hymnal™
%%score ( 1 2 ) ( 3 4 )
L:1/8
Q:1/4=107
M:4/4
K:F
V:1 treble 
V:2 treble 
V:3 bass 
V:4 bass 
V:1
 [FA]3 [FA] [Fc]2 F2 | [FA]3 [EG] [EG]2 F2 | [DF]2 [Fd]2 [Ec]3 [EG] | [FA]6 z2 | %4
 [FA]3 [FA] [Ec]2 F2 | [EA]3 [EG] [DF]2 [DF]2 | [DG]2 d2 [Ec]2 [CE]2 | [CF]6 z2 | %8
 [EG]3 [EG] [Ec]2 [EG]2 | B3 [Gc] [EB]2 [FA]2 | [FA]2 [Fd]2 [FA]2 [F=B]2 | c6 E2 | %12
 c3 z c [Ff]2 [Gc]2 | A3 z A [Ec]2 [EA]2 | F2 [FB]2 A3 z G | F6 z2 |] %16
V:2
 x6 F2 | x6 F2 | x8 | x8 | x6 F2 | x8 | x2 (DF) x4 | x8 | x8 | (E2 F) x5 | x8 | E2 G2 F2 x2 | %12
 F2 E2 x5 | F2 F2 x5 | F2 E2 E2 x3 | F6 x2 |] %16
V:3
 [F,C]3 [F,C] [F,A,]2 [A,,C]2 | [C,C]3 [C,B,] [^C,B,]2 [D,A,]2 | [B,,B,]2 [B,,G,]2 [C,G,]3 [C,C] | %3
 [F,A,]6 z2 | [F,C]3 [F,C] [C,B,]2 [D,A,]2 | [A,,^C]3 [^C,A,] [D,A,]2 [D,A,]2 | %6
 [B,,B,]2 [B,,G,]2 (G,A,) [C,B,]2 | [F,A,]6 z2 | [C,C]3 [C,C] [C,C]2 [C,C]2 | %9
 C3 [E,C] [G,C]2 [F,C]2 | [D,D]2 [D,A,]2 [D,D]2 [G,,D]2 | (C2 B,2 A,2 G,2) | %12
 [F,A,]2 [G,B,]2 [A,C]2 [E,C]2 x | [F,C]2 [D,D]2 [A,,C]2 (CB,) x | %14
 [D,A,]2 [G,,D]2 [C,C]2 [C,B,]2 x | [F,A,]6 z2 |] %16
V:4
 x8 | x8 | x8 | x8 | x8 | x8 | x4 C,2 x2 | x8 | x8 | (C,2 D,) x5 | x8 | C,6 x2 | x9 | x6 C,2 x | %14
 x9 | x8 |] %16

